svg/l/LS.svg

<svg width="32" height="24" viewBox="0 0 32 24" fill="none" xmlns="http://www.w3.org/2000/svg">
<g clip-path="url(#clip0_270_67446)">
<rect width="32" height="24" fill="white"/>
<path fill-rule="evenodd" clip-rule="evenodd" d="M0 16H32V24H0V16Z" fill="#55BA07"/>
<path fill-rule="evenodd" clip-rule="evenodd" d="M0 8H32V16H0V8Z" fill="#F7FCFF"/>
<path fill-rule="evenodd" clip-rule="evenodd" d="M0 0H32V8H0V0Z" fill="#3D58DB"/>
<path fill-rule="evenodd" clip-rule="evenodd" d="M15.25 8.24029C14.7273 8.38063 14.4513 8.74185 14.4513 9.38096C14.4513 10.1114 14.8099 10.7969 15.25 11.1505V8.24029ZM16.5 11.1309C16.9278 10.7725 17.2718 10.0997 17.2718 9.38284C17.2718 8.76209 17 8.4025 16.5 8.25328V11.1309ZM16.4579 7.73228C17.2763 7.91407 17.8686 8.47144 17.8686 9.377C17.8686 10.0356 17.5552 10.8363 17.0695 11.3858L19.5032 13.7728L20.1035 13.5751L21 14.9348C21 14.9348 18.7341 16 15.9334 16C13.1328 16 11 14.9348 11 14.9348L11.7632 13.7728L12.3795 13.9748L14.6374 11.4272C14.1304 10.8771 13.801 10.0524 13.801 9.377C13.801 8.43941 14.4359 7.87508 15.2994 7.7144C15.3944 7.49043 15.6164 7.33334 15.875 7.33334C16.1405 7.33334 16.3673 7.49883 16.4579 7.73228ZM12.0017 14.2964L11.7481 14.6488H12.2416L12.0017 14.2964ZM12.2908 14.7879L11.8549 14.8757L12.2908 15.0275V14.7879ZM12.5131 14.2803L12.7359 14.8006L13.2894 14.6496L13.1796 14.4404L12.5131 14.2803ZM13.7168 15.3179L12.904 15.1576L12.8109 15.0014L13.424 14.868L13.7168 15.3179ZM13.7642 14.5733L14.0169 15.0279L14.5724 14.8587L14.4179 14.655L13.7642 14.5733ZM14.2197 15.4086L14.1203 15.2206L14.7351 15.0565L15.0888 15.4888L14.2197 15.4086ZM15.3677 15.0965L16.16 14.887L16.0625 14.7071H15.0342L15.3677 15.0965ZM15.6518 15.497L15.5259 15.3024L16.2868 15.0532L16.6905 15.497H15.6518ZM16.6145 14.7209L16.8579 15.019L17.5169 14.7906L17.4342 14.6349L16.6145 14.7209ZM18.0446 15.3406L17.1588 15.4391L17.0284 15.2191L17.6984 14.9991L18.0446 15.3406ZM17.9885 14.577L18.2366 14.882L18.8314 14.577L18.6663 14.4853L17.9885 14.577ZM18.503 15.2586L18.3953 15.0936L18.9613 14.754L19.2489 15.0936L18.503 15.2586ZM19.0649 14.3097L19.4242 14.6526L19.7738 14.3097L19.6632 14.1702L19.0649 14.3097ZM19.6345 14.7704L19.9275 14.4805L20.138 14.7704L19.6345 14.9323V14.7704Z" fill="#1D1D1D"/>
</g>
<defs>
<clipPath id="clip0_270_67446">
<rect width="32" height="24" fill="white"/>
</clipPath>
</defs>
</svg>

<svg width="32" height="24" fill="none" xmlns="http://www.w3.org/2000/svg">
  <mask id="a" maskUnits="userSpaceOnUse" x="0" y="0" width="32" height="24">
    <path fill="#fff" d="M0 0h32v24H0z"/>
  </mask>
  <g mask="url(#a)" fill-rule="evenodd" clip-rule="evenodd">
    <path d="M0 16h32v8H0v-8z" fill="#55BA07"/>
    <path d="M0 8h32v8H0V8z" fill="#F7FCFF"/>
    <path d="M0 0h32v8H0V0z" fill="#3D58DB"/>
    <path d="M15.25 8.24c-.523.14-.799.502-.799 1.141 0 .73.359 1.416.799 1.77V8.24zm1.25 2.89c.428-.357.772-1.03.772-1.747 0-.62-.272-.98-.772-1.13v2.878zm-.042-3.398c.818.182 1.41.74 1.41 1.645 0 .659-.313 1.46-.798 2.009l2.433 2.387.6-.198.897 1.36S18.734 16 15.933 16C13.133 16 11 14.935 11 14.935l.763-1.162.617.202 2.257-2.548c-.507-.55-.836-1.375-.836-2.05 0-.938.635-1.502 1.498-1.663a.625.625 0 011.159.018zm-4.456 6.564l-.254.353h.494l-.24-.353zm.289.492l-.436.088.436.152v-.24zm.222-.508l.223.52.553-.15-.11-.21-.666-.16zm1.204 1.038l-.813-.16-.093-.157.613-.133.293.45zm.047-.745l.253.455.555-.17-.154-.203-.654-.082zm.456.836l-.1-.188.615-.165.354.433-.87-.08zm1.148-.313l.792-.209-.098-.18h-1.028l.334.39zm.284.401l-.126-.195.76-.249.404.444h-1.038zm.963-.776l.243.298.659-.228-.083-.156-.82.086zm1.43.62l-.886.098-.13-.22.67-.22.346.342zm-.057-.764l.249.305.594-.305-.165-.092-.678.092zm.515.682l-.108-.165.566-.34.288.34-.746.165zm.562-.95l.36.344.349-.343-.11-.14-.6.14zm.57.461l.292-.29.211.29-.504.162v-.162z" fill="#1D1D1D"/>
  </g>
</svg>
